%
G40 G80 G90 G94 G17
N1(OP NUMBER-THIS IS OPTIONAL-EASY TO CALL UP A PARTICULAR PART OF THE PROGRAM-NORMALLY FOR PRODUCTION)
T1 M06 (50 MM CARBIDE FACE MILL-HIGH SPEED MACHING MODE)
M01
G49 (THIS IS TO CANCEL THE PREVIOUS OFFSET-IT IS REQUIRED)
G05 P20000 (HIGH SPEED MODE-THIS TURNS ON THE READ AHEAD-THIS CAN ONLY BE USED IN MILLING OPERATIONS-NO CANNED CYCLES)
G00 G90 G54 X-110. Y45. S4500 M03
G43 H1 Z50.
M08
G00 X-110. Y45. Z50.
Z6.
G01 Z0. F1500
X110. F3000
Y15.
X-110.
Y-15.
X110.
Y-45.
X-110.
G00 Z50.
G40
G05 P0 (THIS TURNS OFF HIGH SPEED MODE-THIS IS REQUIRED AT THE END OF EACH OPERATION BEFORE A TOOLCHANGE)
G91 G28 Z0. M09
M5

N2(OP NUMBER)
T4 M06 (7 MM DRILL)
M01
G49
G05 P20000
G00 G90 G54 X-11.51 Y38.455 S1200 M03
G43 H4 Z50.
M08
G00 X-11.51 Y38.455 Z50.
G05 P0 (LOOK AHEAD OFF-MUST SWICH OFF HIGH SPEED MODE IN ALL CANNED CYCLES LIKE DRILLING-TAPPING-BORING 
G98 G83 Z-16.103 R2. Q3.5 F140
X-23.155 Y40.368
X52.412 Y33.581
X64.057 Y31.668
X64.318 Y-42.76
G80
G00 Z50.
G40
G05 P0
G91 G28 Z0. M09
M5

N3(OP NUMBER)
T16 M06 (8 MM M8 HSS TAP)
M01
G49
G05 P20000
G00 G90 G54 X-11.51 Y38.455 S1195 M03
G43 H16 Z50.
M08
G00 X-11.51 Y38.455 Z50.
G05 P0 (LOOK AHEAD OFF)
S1195 M03
G98 G84 Z-12. R2. F1.25 R1.0
X-23.155 Y40.368
X52.412 Y33.581
X64.057 Y31.668
X64.318 Y-42.76
G80
G00 Z50.
G40
G05 P0
G91 G28 Z0. M09
M5

N4(OP NUMBER)
T10 M06 (5MM DRILL, 118 INC)
M01
G49
G05 P20000
G00 G90 G54 X0.537 Y-5.958 S1200 M03
G43 H10 Z50.
M08
G00 X0.537 Y-5.958 Z50.
G05 P0 (LOOK AHEAD OFF)
G98 G83 Z-14.502 R2. Q3. F145
X11.047 Y-4.772
X21.439 Y-3.567
X32.424 Y-20.177
X42.934 Y-18.991
X53.326 Y-17.786
G80
G00 Z50.
G40
G05 P0
G91 G28 Z0. M09
M5

N5(OP NUMBER)
T14 M06 (6 MM M6 HSS TAP)
M01
G49
G05 P20000
G00 G90 G54 X0.537 Y-5.958 S1500 M03
G43 H14 Z50.
M08
G00 X0.537 Y-5.958 Z50.
G05 P0 (LOOK AHEAD OFF)
S1500 M03
G98 G84 Z-12. R2. F1. R1.0
X11.047 Y-4.772
X21.439 Y-3.567
X32.424 Y-20.177
X42.934 Y-18.991
X53.326 Y-17.786
G80
G00 Z50.
G40
G05 P0
G91 G28 Z0. M09
M5

N6(OP NUMBER)
T18 M06 (10MM END MILL-HIGH SPEED MACHING MODE)
M01
G49
G05 P20000
G00 G90 G54 X-85.908 Y-67.254 S8800 M03
G43 H18 Z30.
M08
G00 X-85.908 Y-67.254 Z30.
Z2.
G01 Z0. F1125
X-85.878 Y-67.214 Z-0.445
X-85.788 Y-67.096 Z-0.868
X-85.644 Y-66.907 Z-1.247
X-85.452 Y-66.655 Z-1.564
...................................
...................................
X-7.226 Y-38.154 Z-9.564
X-7.251 Y-38.47 Z-9.247
X-7.269 Y-38.707 Z-8.868
X-7.281 Y-38.855 Z-8.445
X-7.284 Y-38.905 Z-8.
G00 Z30.
G40
G05 P0
G91 G28 Z0. M09
M5
N7(OP NUMBER)
T12 M06 (6MM END MILL)
M01
G49
G05 P20000
G00 G90 G54 X-38.022 Y-15.325 S8000 M03
G43 H12 Z30.
M08
G00 X-38.022 Y-15.325 Z30.
Z3.
G03 X-38.074 Y-15.865 Z2.986 I2.798 J-0.54 F925
X-34.79 Y-18.681 Z2.857 I2.85 J0.
X-32.374 Y-15.865 Z2.751 I-0.434 J2.817
X-32.718 Y-14.508 Z2.714 I-2.85 J0.
X-37.345 Y-13.962 Z2.571 I-2.506 J-1.357
...................................
...................................
X-68.832 Y-29.193
G03 X-68.69 Y-28.794 I-0.884 J0.538
G01 X-68.724 Y-28.394
X-68.896 Y-28.061
X-68.953 Y-27.994
X-69.296 Y-27.754
G00 Z5.
Z50.
G40
G05 P0
G91 G28 Z0. M09
M5

N8(OP NUMBER)
T6 M06 (8 CHAMFER)
M01
G49
G05 P20000
G00 G90 G54 X-53.053 Y-8.361 S8000 M03
G43 H6 Z50.
M08
G00 X-53.053 Y-8.361 Z50.
Z2.
G01 Z-2.531 F750
X-28.84 Y4.078 F1500
G03 X-27.026 Y8.061 I-1.613 J3.14
G01 X-34.294 Y37.631
G02 X-21.296 Y51.687 I11.138 J2.738
............................
............................
G02 X53.556 Y17.784 I-0.503 J0.122
X53.12 Y17.731 I-0.32 J0.812
X52.86 Y17.783 I0.074 J1.047
X52.669 Y17.924 I0.132 J0.379
X52.584 Y18.128 I0.467 J0.315
G00 Z5.
G40
G05 P0
G91 G28 Z0. M09
M5
G28 Y0
G90
M30
%